public/images/dev43.svg

<svg width="101" height="100" viewBox="0 0 101 100" fill="none" xmlns="http://www.w3.org/2000/svg">
<path d="M50.0291 7C43.6254 7 37.3656 8.90253 32.0411 12.467C26.7167 16.0315 22.5668 21.0978 20.1162 27.0253C17.6656 32.9528 17.0245 39.4753 18.2737 45.7679C19.523 52.0605 22.6067 57.8406 27.1348 62.3773C31.6628 66.914 37.4319 70.0036 43.7125 71.2552C49.9932 72.5069 56.5032 71.8645 62.4194 69.4093C68.3356 66.954 73.3923 62.7962 76.9499 57.4616C80.5076 52.127 82.4065 45.8552 82.4065 39.4393C82.4065 30.8358 78.9953 22.5848 72.9234 16.5012C66.8514 10.4177 58.6161 7 50.0291 7ZM50.0291 67.7242C44.9332 67.7242 40.8061 64.3269 40.8061 60.1142H59.2133C59.2133 64.3074 55.0862 67.7242 49.9903 67.7242H50.0291ZM65.2393 57.5905H34.877V52.0772H65.2974L65.2393 57.5905ZM65.123 49.2041H34.877L34.5863 48.8546C32.5556 46.6046 31.006 43.962 30.0329 41.0894C30.0329 41.0894 33.9082 41.8659 36.5046 42.4677C37.6284 42.7201 38.7716 42.953 39.9148 43.1472C37.9581 40.8935 36.8599 38.0192 36.8146 35.0325C36.8146 28.5291 41.7942 22.8411 39.9923 18.2596C41.7361 18.3955 43.6156 21.9481 43.7318 27.5196C45.5035 24.4335 46.4137 20.9265 46.367 17.3666C46.367 14.377 48.3046 10.9214 50.2422 10.805C48.4984 13.6975 50.6879 16.163 52.6448 22.3169C53.3811 24.6465 53.2843 28.5291 53.8462 30.9752C54.0399 25.8501 54.9118 18.3955 58.1477 15.8135C56.7138 19.0555 58.3414 23.1129 59.4846 25.0736C61.4565 28.0491 62.4709 31.5587 62.391 35.1296C62.3781 38.0991 61.3139 40.9678 59.3877 43.2248C61.5191 42.8172 63.0111 42.4677 63.0111 42.4677L69.9477 41.1088C69.0081 44.1849 67.3318 46.9841 65.0649 49.2623L65.123 49.2041Z" fill="#DA4E31"/>
<path d="M0 79.2556C1.12075 79.0706 2.25496 78.9796 3.39082 78.9838C4.77981 78.8691 6.16157 79.2775 7.26603 80.1291C7.66025 80.4937 7.97156 80.9389 8.17884 81.4347C8.38612 81.9304 8.48452 82.4651 8.46735 83.0023C8.49632 83.5361 8.4187 84.0703 8.23904 84.5736C8.05937 85.077 7.78128 85.5393 7.42104 85.9337C6.86128 86.4486 6.20434 86.8462 5.4889 87.1029C4.77345 87.3596 4.01398 87.4703 3.25518 87.4285C2.78097 87.4379 2.30703 87.3989 1.84073 87.312V92.7865H0V79.2556ZM1.74385 85.856C2.22063 85.9623 2.70888 86.008 3.19705 85.9919C5.32842 85.9919 6.62662 84.9436 6.62662 83.0799C6.62662 81.2163 5.32842 80.3815 3.41019 80.3815C2.85141 80.3638 2.29241 80.4094 1.74385 80.5174V85.856ZM10.3856 86.0113V82.944H11.955V84.8854C12.1255 84.2708 12.4888 83.7276 12.9913 83.336C13.4938 82.9444 14.1088 82.7253 14.7452 82.7111H15.2296V84.4C15.03 84.3784 14.8286 84.3784 14.6289 84.4C14.0233 84.4215 13.4465 84.6644 13.0074 85.0829C12.5684 85.5014 12.2974 86.0664 12.2457 86.6714C12.2243 86.9492 12.2243 87.2283 12.2457 87.5061V92.7477H10.3856V86.0113ZM25.6927 87.7585C25.7498 88.4307 25.6653 89.1075 25.4446 89.745C25.2239 90.3824 24.872 90.9662 24.4116 91.4586C23.9512 91.951 23.3927 92.3409 22.7722 92.6031C22.1517 92.8653 21.4832 92.9939 20.8099 92.9806C20.1612 92.988 19.518 92.8599 18.9215 92.6045C18.3249 92.349 17.788 91.9719 17.345 91.497C16.902 91.0221 16.5627 90.4599 16.3486 89.8463C16.1345 89.2327 16.0503 88.5812 16.1015 87.9332C16.0413 87.2603 16.1236 86.5822 16.3432 85.9434C16.5627 85.3046 16.9146 84.7195 17.3756 84.2265C17.8366 83.7334 18.3964 83.3436 19.0183 83.0824C19.6402 82.8212 20.3102 82.6947 20.9843 82.7111C21.6346 82.6952 22.2809 82.8166 22.8812 83.0676C23.4814 83.3187 24.0222 83.6935 24.4682 84.1679C24.9143 84.6422 25.2555 85.2054 25.4699 85.8207C25.6842 86.436 25.7667 87.0897 25.7121 87.7391L25.6927 87.7585ZM17.9423 87.8556C17.9423 90.0104 19.1436 91.6411 20.9068 91.6411C22.67 91.6411 23.8907 90.0298 23.8907 87.7585C23.8907 86.089 23.0575 83.9924 20.9456 83.9924C18.8336 83.9924 17.9423 85.9337 17.9423 87.875V87.8556ZM27.9597 85.5842V82.9246H29.5292V84.5359C29.8259 83.9748 30.2736 83.5081 30.8216 83.189C31.3695 82.8699 31.9958 82.7111 32.6293 82.7305C33.2329 82.7253 33.823 82.9098 34.3165 83.258C34.8101 83.6062 35.1823 84.1007 35.3807 84.6718C35.6559 84.1665 36.0398 83.7289 36.5046 83.3905C37.1442 82.8935 37.9449 82.6515 38.7522 82.7111C40.0698 82.7111 41.988 83.5653 41.988 86.982V92.8059H40.2441V87.2343C40.2441 85.293 39.5272 84.2059 38.1128 84.2059C37.6361 84.2253 37.1766 84.3899 36.7958 84.6779C36.4149 84.9658 36.1308 85.3632 35.9814 85.8172C35.8924 86.1065 35.8467 86.4074 35.8458 86.7102V92.7865H34.1019V86.9626C34.1019 85.3901 33.4044 84.2835 32.0481 84.2835C31.5409 84.3163 31.0562 84.5055 30.6607 84.8253C30.2652 85.1451 29.9782 85.5798 29.8392 86.0696C29.7401 86.3497 29.6941 86.646 29.7035 86.9431V92.7671H27.9597V85.6231V85.5842ZM45.8632 88.1662C45.8224 88.6218 45.8812 89.0808 46.0356 89.5113C46.1901 89.9418 46.4363 90.3333 46.7573 90.6586C47.0783 90.9839 47.4663 91.2351 47.8941 91.3948C48.322 91.5544 48.7795 91.6186 49.2346 91.5829C50.1649 91.6163 51.0911 91.444 51.9473 91.0781L52.3154 92.4176C51.2797 92.8532 50.1639 93.0649 49.0409 93.0389C48.3855 93.0775 47.7295 92.9744 47.1174 92.7364C46.5054 92.4984 45.9517 92.1312 45.4939 91.6597C45.0362 91.1882 44.6851 90.6234 44.4647 90.0039C44.2442 89.3843 44.1595 88.7244 44.2162 88.0691C44.1323 87.4135 44.1857 86.7476 44.373 86.1139C44.5602 85.4801 44.8773 84.8924 45.3039 84.3883C45.7305 83.8842 46.2573 83.4746 46.8507 83.1859C47.4441 82.8971 48.091 82.7354 48.7502 82.7111C49.3271 82.7183 49.8961 82.8465 50.4205 83.0876C50.9448 83.3287 51.4129 83.6773 51.7945 84.1108C52.1761 84.5444 52.4627 85.0532 52.6359 85.6046C52.809 86.156 52.8649 86.7376 52.7998 87.312C52.8256 87.5896 52.8256 87.8691 52.7998 88.1468L45.8632 88.1662ZM51.0947 86.8849C51.1442 86.5277 51.1173 86.164 51.0158 85.818C50.9143 85.472 50.7405 85.1516 50.506 84.8781C50.2714 84.6045 49.9815 84.3841 49.6554 84.2314C49.3293 84.0787 48.9745 83.9972 48.6146 83.9924C47.8793 84.0412 47.1896 84.3662 46.6831 84.9025C46.1766 85.4387 45.8907 86.1467 45.8826 86.8849H51.0947ZM57.1595 80.5756V82.9246H59.7171V84.2835H57.1595V89.5833C57.1595 90.7869 57.5082 91.5246 58.4964 91.5246C58.8424 91.5319 59.1878 91.4927 59.5233 91.4082V92.7671C59.0099 92.9328 58.4739 93.0179 57.9345 93.0194C57.5766 93.0363 57.2192 92.9775 56.8854 92.8471C56.5516 92.7167 56.2489 92.5175 55.9969 92.2623C55.4665 91.5116 55.2193 90.5966 55.2994 89.6804V84.303H53.788V82.944H55.3187V81.1192L57.1595 80.5756ZM61.7128 78.3237H63.4954V84.4777C63.7965 83.9413 64.2389 83.498 64.7743 83.1964C65.3458 82.8682 65.9951 82.7006 66.6537 82.7111C67.9713 82.7111 70.0833 83.5264 70.0833 86.8849V92.7088H68.3007V87.079C68.3007 85.4872 67.7194 84.1671 66.0337 84.1671C65.5063 84.1812 64.9958 84.356 64.57 84.6681C64.1443 84.9802 63.8235 85.4149 63.6505 85.9142C63.5585 86.1891 63.5191 86.4789 63.5342 86.7684V92.5924H61.7516V78.3431L61.7128 78.3237ZM73.9585 88.1468C73.9177 88.6024 73.9765 89.0614 74.131 89.4919C74.2854 89.9223 74.5317 90.3139 74.8527 90.6392C75.1737 90.9645 75.5616 91.2157 75.9895 91.3753C76.4173 91.535 76.8748 91.5992 77.33 91.5635C78.2602 91.5969 79.1864 91.4246 80.0426 91.0587L80.372 92.34C79.3363 92.7756 78.2205 92.9873 77.0975 92.9612C76.4437 92.997 75.7898 92.8917 75.1801 92.6524C74.5704 92.4132 74.0192 92.0455 73.5636 91.5743C73.108 91.1031 72.7587 90.5394 72.5394 89.9213C72.32 89.3032 72.2357 88.645 72.2922 87.9915C72.2197 87.3387 72.2828 86.678 72.4777 86.051C72.6726 85.4239 72.995 84.8441 73.4245 84.3481C73.8541 83.852 74.3816 83.4505 74.9737 83.1687C75.5658 82.887 76.2098 82.7312 76.8649 82.7111C77.4418 82.7183 78.0108 82.8465 78.5352 83.0876C79.0595 83.3287 79.5276 83.6773 79.9092 84.1108C80.2908 84.5444 80.5774 85.0532 80.7506 85.6046C80.9237 86.156 80.9796 86.7376 80.9145 87.312C80.9414 87.5896 80.9414 87.8691 80.9145 88.1468H73.9585ZM79.1901 86.8655C79.2396 86.5083 79.2127 86.1446 79.1112 85.7986C79.0096 85.4526 78.8358 85.1322 78.6013 84.8587C78.3667 84.5851 78.0768 84.3647 77.7507 84.212C77.4246 84.0592 77.0699 83.9778 76.7099 83.9729C75.9747 84.0218 75.2849 84.3468 74.7784 84.883C74.2719 85.4193 73.9861 86.1273 73.9779 86.8655H79.1901ZM91.3195 90.0492V92.7477H89.7307L89.6338 91.1364C89.3057 91.7019 88.8328 92.1693 88.2638 92.4902C87.6949 92.811 87.0507 92.9736 86.398 92.9612C84.8479 92.9612 83.0072 92.0876 83.0072 88.6515V82.8276H84.7898V88.2438C84.7898 90.1851 85.371 91.3887 86.9793 91.3887C87.4892 91.377 87.9841 91.214 88.4015 90.9202C88.8189 90.6265 89.1398 90.2153 89.3238 89.7386C89.4329 89.4471 89.4855 89.1375 89.4788 88.8262V82.8082H91.2614L91.3195 90.0492ZM94.0322 90.9422C94.7502 91.3677 95.5625 91.6078 96.396 91.6411C97.6749 91.6411 98.3337 91.0199 98.3337 90.1851C98.3337 89.3504 97.8299 88.8845 96.5317 88.3991C94.7491 87.7585 93.8965 86.7878 93.8965 85.6231C93.9129 85.2068 94.0142 84.7984 94.1942 84.4229C94.3743 84.0474 94.6293 83.7129 94.9434 83.44C95.2575 83.1672 95.6241 82.9617 96.0206 82.8363C96.4171 82.7109 96.835 82.6683 97.2486 82.7111C98.0832 82.688 98.9079 82.8963 99.6319 83.3129L99.2056 84.6524C98.6226 84.2898 97.9539 84.0888 97.268 84.07C96.2217 84.07 95.6404 84.6718 95.6404 85.4095C95.6404 86.1472 96.2023 86.5937 97.578 87.0984C99.2637 87.7197 100.155 88.5738 100.155 90.0492C100.155 91.5246 98.7987 93.0194 96.5123 93.0194C95.5503 93.0289 94.6022 92.7881 93.7609 92.3206L94.0322 90.9422Z" fill="#E6522C"/>
</svg>

<svg xmlns="http://www.w3.org/2000/svg" width="101" height="100" fill="none"><path fill="#DA4E31" d="M50.03 7a32.33 32.33 0 0 0-17.989 5.467 32.43 32.43 0 0 0-11.925 14.558 32.5 32.5 0 0 0-1.842 18.743 32.46 32.46 0 0 0 8.86 16.61 32.36 32.36 0 0 0 16.579 8.877 32.3 32.3 0 0 0 18.706-1.846 32.4 32.4 0 0 0 14.53-11.947 32.5 32.5 0 0 0 5.457-18.023 32.47 32.47 0 0 0-9.483-22.938A32.35 32.35 0 0 0 50.03 7m0 60.724c-5.097 0-9.224-3.397-9.224-7.61h18.407c0 4.193-4.127 7.61-9.223 7.61zM65.24 57.59H34.876v-5.513h30.42zm-.117-8.386H34.877l-.29-.35a22.2 22.2 0 0 1-4.554-7.765s3.875.777 6.472 1.379c1.123.252 2.267.485 3.41.68a12.67 12.67 0 0 1-3.1-8.116c0-6.503 4.98-12.19 3.177-16.772 1.744.135 3.624 3.688 3.74 9.26a19.87 19.87 0 0 0 2.635-10.153c0-2.99 1.938-6.446 3.875-6.562-1.744 2.893.446 5.358 2.403 11.512.736 2.33.64 6.212 1.201 8.658.194-5.125 1.066-12.58 4.302-15.162-1.434 3.242.193 7.3 1.337 9.26A17.5 17.5 0 0 1 62.39 35.13a12.56 12.56 0 0 1-3.003 8.095c2.131-.408 3.623-.757 3.623-.757l6.937-1.36a19.7 19.7 0 0 1-4.883 8.154z"/><path fill="#E6522C" d="M0 79.256a20.4 20.4 0 0 1 3.39-.272 5.6 5.6 0 0 1 3.876 1.145 3.75 3.75 0 0 1 1.201 2.873 4.03 4.03 0 0 1-1.046 2.932 5.7 5.7 0 0 1-4.166 1.495c-.474.009-.948-.03-1.414-.117v5.475H0zm1.744 6.6a5.8 5.8 0 0 0 1.453.136c2.131 0 3.43-1.048 3.43-2.912s-1.299-2.698-3.217-2.698a7.4 7.4 0 0 0-1.666.135zm8.642.155v-3.067h1.569v1.941a2.97 2.97 0 0 1 2.79-2.174h.485V84.4a2.8 2.8 0 0 0-.601 0 2.48 2.48 0 0 0-2.383 2.271 5.4 5.4 0 0 0 0 .835v5.242h-1.86zm15.307 1.748a4.82 4.82 0 0 1-1.281 3.7 4.8 4.8 0 0 1-3.602 1.522 4.66 4.66 0 0 1-3.465-1.484 4.68 4.68 0 0 1-1.243-3.564 4.8 4.8 0 0 1 1.274-3.707 4.79 4.79 0 0 1 3.608-1.515 4.62 4.62 0 0 1 3.484 1.457 4.64 4.64 0 0 1 1.244 3.571zm-7.75.097c0 2.154 1.2 3.785 2.964 3.785 1.763 0 2.984-1.611 2.984-3.883 0-1.669-.833-3.766-2.945-3.766s-3.004 1.942-3.004 3.883zm10.017-2.272v-2.66h1.57v1.612a3.4 3.4 0 0 1 3.1-1.805 2.88 2.88 0 0 1 2.75 1.94 3.9 3.9 0 0 1 1.125-1.28 3.27 3.27 0 0 1 2.247-.68c1.318 0 3.236.854 3.236 4.271v5.824h-1.744v-5.572c0-1.941-.717-3.028-2.131-3.028a2.34 2.34 0 0 0-2.132 1.611q-.134.437-.135.893v6.077h-1.744v-5.824c0-1.573-.698-2.68-2.054-2.68a2.46 2.46 0 0 0-2.209 1.787c-.099.28-.145.576-.136.873v5.824H27.96v-7.183m17.903 2.582a3.15 3.15 0 0 0 .894 2.493 3.14 3.14 0 0 0 2.478.924 6.3 6.3 0 0 0 2.712-.505l.368 1.34a8 8 0 0 1-3.274.62 4.57 4.57 0 0 1-3.547-1.378 4.58 4.58 0 0 1-1.278-3.59 4.765 4.765 0 0 1 2.635-4.884 4.7 4.7 0 0 1 1.9-.475 4.12 4.12 0 0 1 3.044 1.4 4.14 4.14 0 0 1 1.005 3.201q.039.417 0 .835zm5.232-1.281a2.55 2.55 0 0 0-1.44-2.654 2.5 2.5 0 0 0-1.04-.239 2.92 2.92 0 0 0-1.932.91 2.93 2.93 0 0 0-.8 1.983zm6.065-6.31v2.35h2.557v1.359H57.16v5.3c0 1.203.348 1.94 1.336 1.94a3.9 3.9 0 0 0 1.027-.116v1.36a5.2 5.2 0 0 1-1.589.251 2.55 2.55 0 0 1-1.937-.757 3.9 3.9 0 0 1-.698-2.582v-5.377h-1.511v-1.359h1.53v-1.825zm4.553-2.251h1.782v6.154c.302-.537.744-.98 1.28-1.282a3.66 3.66 0 0 1 1.879-.485c1.317 0 3.43.815 3.43 4.174v5.824H68.3v-5.63c0-1.592-.582-2.912-2.267-2.912a2.59 2.59 0 0 0-2.384 1.747 2.3 2.3 0 0 0-.116.854v5.824h-1.782V78.343zm12.246 9.823a3.15 3.15 0 0 0 2.03 3.228c.428.16.886.224 1.341.189a6.3 6.3 0 0 0 2.713-.505l.329 1.281a8 8 0 0 1-3.275.621 4.57 4.57 0 0 1-3.533-1.387 4.58 4.58 0 0 1-1.272-3.582 4.76 4.76 0 0 1 1.132-3.644 4.75 4.75 0 0 1 3.44-1.637 4.12 4.12 0 0 1 3.045 1.4 4.14 4.14 0 0 1 1.005 3.201q.04.417 0 .835zm5.231-1.282a2.55 2.55 0 0 0-1.44-2.653 2.5 2.5 0 0 0-1.04-.24 2.92 2.92 0 0 0-1.932.911 2.94 2.94 0 0 0-.8 1.983zm12.13 3.184v2.699h-1.59l-.096-1.612a3.67 3.67 0 0 1-3.236 1.825c-1.55 0-3.39-.873-3.39-4.31v-5.823h1.782v5.416c0 1.941.581 3.145 2.19 3.145a2.57 2.57 0 0 0 2.344-1.65c.109-.292.162-.602.155-.913v-6.018h1.782zm2.712.893a5 5 0 0 0 2.364.7c1.279 0 1.938-.622 1.938-1.457s-.504-1.3-1.802-1.786c-1.783-.64-2.635-1.611-2.635-2.776a3.06 3.06 0 0 1 1.046-2.183 3.04 3.04 0 0 1 2.306-.729 4.53 4.53 0 0 1 2.383.602l-.426 1.34a3.87 3.87 0 0 0-1.938-.583c-1.046 0-1.628.602-1.628 1.34 0 .737.562 1.184 1.938 1.688 1.686.622 2.577 1.476 2.577 2.951s-1.356 2.97-3.643 2.97a5.55 5.55 0 0 1-2.751-.698z"/></svg>
